X: 42834
T: Wienerkvadrille
R: slide
M: 12/8
K: Dmajor
|:gf|e2A Afe d2D FAd|c2E G2C D2F Agf|
e2A Afe d2D FAd|c2E G2C D3- D:|
|:dc|B2F Fdc B3- Bdc|B3 BAG f3- faf|
e2A Afe d2D FAd|c2E G2C D3- D:|
K:G
|:GA|B3 BAG B2B BdB|A2A ABA G3 G2A|
B3 BAG B2B BdB|A2A ABA G3 G:|

